src/assets/icons/default/IconStar.svg

<svg width="20" height="20" viewBox="0 0 24 24" fill="none" xmlns="http://www.w3.org/2000/svg">
<path d="M11.4265 1.4286C11.6386 0.85713 12.3614 0.857135 12.5735 1.4286L14.576 6.82337C14.9371 7.7964 15.8256 8.49064 16.8765 8.55171L22.409 8.87318C22.669 8.88829 22.8751 9.05499 22.9633 9.33861C23.0522 9.62435 22.9827 9.91866 22.7527 10.1145L18.4578 13.7701C17.6659 14.444 17.3402 15.5205 17.5938 16.5214L19.0106 22.1148C19.0946 22.4464 18.9667 22.7185 18.7614 22.8742C18.5615 23.0259 18.323 23.0491 18.0936 22.8946L13.4367 19.7591C12.5644 19.1717 11.4356 19.1717 10.5633 19.7591L5.90642 22.8946C5.67697 23.0491 5.4385 23.0259 5.23856 22.8742C5.03329 22.7185 4.90542 22.4464 4.98941 22.1148L6.40624 16.5214C6.65976 15.5205 6.33408 14.4441 5.54224 13.7701L1.24732 10.1145C1.01728 9.91866 0.94776 9.62435 1.03668 9.33861C1.12493 9.05499 1.33098 8.88829 1.59104 8.87318L7.12354 8.55171C8.17441 8.49064 9.06285 7.7964 9.42402 6.82337L11.4265 1.4286Z" stroke="currentColor" stroke-width="2"/>
<path d="M16 13L8 13M12 17L12 9" stroke="currentColor" stroke-width="2"/>
</svg>

<svg xmlns="http://www.w3.org/2000/svg" width="20" height="20" fill="none" viewBox="0 0 24 24">
  <path stroke="currentcolor" stroke-width="2" d="M11.43 1.43c.2-.57.93-.57 1.14 0l2 5.4a2.6 2.6 0 0 0 2.3 1.72l5.54.32q.41.03.55.47a.7.7 0 0 1-.2.77l-4.3 3.66a2.7 2.7 0 0 0-.87 2.75l1.42 5.6a.7.7 0 0 1-.25.75.54.54 0 0 1-.67.02l-4.65-3.13c-.88-.59-2-.59-2.88 0l-4.65 3.13a.54.54 0 0 1-.67-.02.7.7 0 0 1-.25-.76l1.42-5.59c.25-1-.08-2.08-.87-2.75l-4.3-3.66a.7.7 0 0 1-.2-.77c.08-.29.3-.45.55-.47l5.53-.32a2.6 2.6 0 0 0 2.3-1.73zM16 13H8m4 4V9"/>
</svg>
